X:38
T:Twenty-Eighth Of January
T: Twelfth of January
R: Reel
M: 4/4
L: 1/8
K: A dorian
|:"Am"A,A, CC "D"DD FF|"Am"A,A, C2 "D"D2AB|"Am"cBAG EGAB|"Em"cBcd "Am"e2z2|!
"Am"A,A,CC "D"DDFF|"Am"A,A,C2"D"D2ef|"Am"gfed "D" cBAG|1"Em"EG AB "Am"A2z2:|2"G"(EG A3z)"Am"(3efg|!
|:"Am"a2ab ageg|agab agef|"G".g2.g.a gfe(g|g)fga b2z2|!
"F"a3b ageg|agab a2ef|"G".g.f.e.d (3edc (3BAG|1"Em"EGAB "Am"A2 (3efg:|2"Em"EGA2 "Am"A3z|

